assets/svg/1F171.svg

<svg xmlns="http://www.w3.org/2000/svg" viewBox="0 0 64 64" enable-background="new 0 0 64 64"><path fill="#ec1c24" d="M64.041,57.137c0,3.816-3.091,6.908-6.902,6.908H6.9c-3.81,0-6.9-3.092-6.9-6.908V6.904   C0,3.092,3.09,0,6.9,0h50.238c3.812,0,6.902,3.092,6.902,6.904V57.137z"/><path fill="#c32129" d="m0 48.765v8.372c0 3.816 3.09 6.908 6.9 6.908h50.24c3.812 0 6.902-3.092 6.902-6.908v-50.23c-10.935 39.724-50.25 42.24-64.04 41.861"/><path fill="#fff" d="m32.579 51.825h-13.13c-1.9 0-3.253-.425-4.062-1.274-.811-.85-1.218-2.203-1.218-4.061v-32.31c0-1.896.413-3.257 1.247-4.087.83-.83 2.174-1.247 4.03-1.247h13.925c2.052 0 3.83.13 5.337.381 1.503.256 2.852.744 4.04 1.468 1.019.605 1.916 1.373 2.699 2.301.78.929 1.377 1.956 1.788 3.077.407 1.125.615 2.313.615 3.564 0 4.3-2.151 7.447-6.452 9.438 5.646 1.802 8.475 5.299 8.475 10.497 0 2.403-.618 4.567-1.85 6.495-1.231 1.924-2.892 3.349-4.982 4.265-1.308.547-2.814.933-4.519 1.157-1.697.227-3.679.337-5.946.337m-9.705-36.442v11.11h7.975c2.169 0 3.845-.201 5.03-.614 1.183-.409 2.083-1.192 2.713-2.345.487-.822.731-1.739.731-2.758 0-2.167-.771-3.611-2.313-4.324-1.546-.712-3.9-1.07-7.07-1.07h-7.07zm9.06 17.357h-9.06v12.547h9.352c5.885 0 8.827-2.121 8.827-6.362 0-2.168-.764-3.741-2.288-4.721-1.525-.975-3.803-1.464-6.83-1.464"/></svg>

<?xml version="1.0" encoding="UTF-8" standalone="no"?>
<!-- Generator: Adobe Illustrator 16.0.0, SVG Export Plug-In . SVG Version: 6.00 Build 0)  -->

<svg
   xmlns:dc="http://purl.org/dc/elements/1.1/"
   xmlns:cc="http://creativecommons.org/ns#"
   xmlns:rdf="http://www.w3.org/1999/02/22-rdf-syntax-ns#"
   xmlns:svg="http://www.w3.org/2000/svg"
   xmlns="http://www.w3.org/2000/svg"
   xmlns:sodipodi="http://sodipodi.sourceforge.net/DTD/sodipodi-0.dtd"
   xmlns:inkscape="http://www.inkscape.org/namespaces/inkscape"
   version="1.1"
   id="Layer_1"
   x="0px"
   y="0px"
   width="64px"
   height="64px"
   viewBox="0 0 64 64"
   enable-background="new 0 0 64 64"
   xml:space="preserve"
   inkscape:version="0.48.5 r10040"
   sodipodi:docname="1F171.svg"
   inkscape:export-filename="D:\TESTINGEMOJI\SVGTEST\1F171.png"
   inkscape:export-xdpi="90"
   inkscape:export-ydpi="90"><metadata
   id="metadata4421"><rdf:RDF><cc:Work
       rdf:about=""><dc:format>image/svg+xml</dc:format><dc:type
         rdf:resource="http://purl.org/dc/dcmitype/StillImage" /><dc:title></dc:title></cc:Work></rdf:RDF></metadata><defs
   id="defs4419" /><sodipodi:namedview
   pagecolor="#ffffff"
   bordercolor="#666666"
   borderopacity="1"
   objecttolerance="10"
   gridtolerance="10"
   guidetolerance="10"
   inkscape:pageopacity="0"
   inkscape:pageshadow="2"
   inkscape:window-width="640"
   inkscape:window-height="480"
   id="namedview4417"
   showgrid="false"
   inkscape:zoom="3.6875"
   inkscape:cx="32"
   inkscape:cy="32"
   inkscape:window-x="617"
   inkscape:window-y="288"
   inkscape:window-maximized="0"
   inkscape:current-layer="Layer_1" />
<g
   id="g4409">
	<path
   fill="#EC1C24"
   d="M64.041,57.137c0,3.816-3.091,6.908-6.902,6.908H6.9c-3.81,0-6.9-3.092-6.9-6.908V6.904   C0,3.092,3.09,0,6.9,0h50.238c3.812,0,6.902,3.092,6.902,6.904V57.137z"
   id="path4411" />
	<path
   fill="#C32129"
   d="M0,48.765v8.372c0,3.816,3.09,6.908,6.9,6.908h50.238c3.812,0,6.902-3.092,6.902-6.908V6.904   C53.105,46.628,13.793,49.146,0,48.765z"
   id="path4413" />
	<path
   fill="#FFFFFF"
   d="M32.579,51.825H19.445c-1.9,0-3.253-0.425-4.062-1.274c-0.811-0.85-1.218-2.203-1.218-4.061V14.179   c0-1.896,0.413-3.257,1.247-4.087c0.83-0.83,2.174-1.247,4.033-1.247H33.37c2.052,0,3.83,0.13,5.337,0.381   c1.503,0.256,2.852,0.744,4.044,1.468c1.019,0.605,1.916,1.373,2.699,2.301c0.78,0.929,1.377,1.956,1.788,3.077   c0.407,1.125,0.615,2.313,0.615,3.564c0,4.3-2.151,7.447-6.452,9.438c5.646,1.802,8.475,5.299,8.475,10.497   c0,2.403-0.618,4.567-1.85,6.495c-1.231,1.924-2.892,3.349-4.982,4.265c-1.308,0.547-2.814,0.933-4.519,1.157   C36.828,51.715,34.846,51.825,32.579,51.825z M22.874,15.383v11.11h7.975c2.169,0,3.845-0.201,5.028-0.614   c1.183-0.409,2.083-1.192,2.713-2.345c0.487-0.822,0.731-1.739,0.731-2.758c0-2.167-0.771-3.611-2.313-4.324   c-1.546-0.712-3.9-1.07-7.067-1.07H22.874z M31.934,32.74h-9.061v12.547h9.352c5.885,0,8.827-2.121,8.827-6.362   c0-2.168-0.764-3.741-2.288-4.721C37.239,33.229,34.961,32.74,31.934,32.74z"
   id="path4415" />
</g>
</svg>
